src/assets/img/icons/duotone-icons/Weather/Cloud-sun.svg

<?xml version="1.0" encoding="UTF-8"?>
<svg width="24px" height="24px" viewBox="0 0 24 24" version="1.1" xmlns="http://www.w3.org/2000/svg" xmlns:xlink="http://www.w3.org/1999/xlink">
    <!-- Generator: Sketch 52.2 (67145) - http://www.bohemiancoding.com/sketch -->
    <title>Stockholm-icons / Weather / Cloud-sun</title>
    <desc>Created with Sketch.</desc>
    <g id="Stockholm-icons-/-Weather-/-Cloud-sun" stroke="none" stroke-width="1" fill="none" fill-rule="evenodd">
        <polygon id="Shape" points="0 0 24 0 24 24 0 24"></polygon>
        <path d="M13,16 C10.790861,16 9,14.209139 9,12 C9,9.790861 10.790861,8 13,8 C15.209139,8 17,9.790861 17,12 C17,14.209139 15.209139,16 13,16 Z M20.5,10.5 L22,10.5 C22.8284271,10.5 23.5,11.1715729 23.5,12 C23.5,12.8284271 22.8284271,13.5 22,13.5 L20.5,13.5 C19.6715729,13.5 19,12.8284271 19,12 C19,11.1715729 19.6715729,10.5 20.5,10.5 Z M17.0606602,5.87132034 L18.1213203,4.81066017 C18.7071068,4.22487373 19.6568542,4.22487373 20.2426407,4.81066017 C20.8284271,5.39644661 20.8284271,6.34619408 20.2426407,6.93198052 L19.1819805,7.99264069 C18.5961941,8.57842712 17.6464466,8.57842712 17.0606602,7.99264069 C16.4748737,7.40685425 16.4748737,6.45710678 17.0606602,5.87132034 Z M13,1.5 C13.8284271,1.5 14.5,2.17157288 14.5,3 L14.5,4.5 C14.5,5.32842712 13.8284271,6 13,6 C12.1715729,6 11.5,5.32842712 11.5,4.5 L11.5,3 C11.5,2.17157288 12.1715729,1.5 13,1.5 Z M5.81066017,4.81066017 C6.39644661,4.22487373 7.34619408,4.22487373 7.93198052,4.81066017 L8.99264069,5.87132034 C9.57842712,6.45710678 9.57842712,7.40685425 8.99264069,7.99264069 C8.40685425,8.57842712 7.45710678,8.57842712 6.87132034,7.99264069 L5.81066017,6.93198052 C5.22487373,6.34619408 5.22487373,5.39644661 5.81066017,4.81066017 Z" id="Combined-Shape" fill="#335EEA" opacity="0.3"></path>
        <path d="M4.74714567,20.0425758 C3.09410362,18.9740356 2,17.1147886 2,15 C2,11.6862915 4.6862915,9 8,9 C10.7957591,9 13.1449096,10.9121592 13.8109738,13.5 L16.25,13.5 C18.3210678,13.5 20,15.1789322 20,17.25 C20,19.3210678 18.3210678,21 16.25,21 L7.25,21 C6.28817895,21 5.41093178,20.6378962 4.74714567,20.0425758 Z" id="Combined-Shape" fill="#335EEA"></path>
    </g>
</svg>

<svg width="24" height="24" viewBox="0 0 24 24" xmlns="http://www.w3.org/2000/svg"><g fill="none" fill-rule="evenodd"><path d="M0 0h24v24H0z"/><path d="M13 16a4 4 0 110-8 4 4 0 010 8zm7.5-5.5H22a1.5 1.5 0 010 3h-1.5a1.5 1.5 0 010-3zm-3.44-4.629l1.061-1.06a1.5 1.5 0 012.122 2.121l-1.061 1.06a1.5 1.5 0 11-2.121-2.12zM13 1.5A1.5 1.5 0 0114.5 3v1.5a1.5 1.5 0 01-3 0V3A1.5 1.5 0 0113 1.5zM5.81 4.81a1.5 1.5 0 012.122 0l1.06 1.061a1.5 1.5 0 01-2.12 2.122L5.81 6.932a1.5 1.5 0 010-2.121z" fill="#335EEA" opacity=".3"/><path d="M4.747 20.043a6 6 0 119.064-6.543h2.439a3.75 3.75 0 010 7.5h-9c-.962 0-1.84-.362-2.503-.957z" fill="#335EEA"/></g></svg>
